X:1
T:Title
%%score { ( 1 4 ) | ( 2 3 ) }
L:1/8
Q:1/4=107
M:6/8
K:G
V:1 treble nm="Grand Piano"
V:4 treble 
V:2 bass 
V:3 bass 
V:1
 [DB]2 A G2 D | [DB]2 A G2 D | [B,G]3 .[DB]3 | [FA]6 | [Ec]2 B A2 E | [Ec]2 B A2 [Fd] | G3 [FA]3 | %7
w: P.~W.~Hill * * *|||||||
 [GB]6 | [Bd]2 d d2 B | [Ac]2 c c2 A | B3 z DG | [FA]6 | [B,G]2 [B,G] [EG]2 [EG] | %13
w: ||||||
 [DF]2 [CE] [B,D]2 G | B3 A3 | [B,G]6 | G3 B3 | G3 B3 | [FA]2 [GB] [Ac]2 [Fd] | B3 G3 | d3 B3 | %21
w: ||||||||
 d3 B3 | G2 G GAB | [GB]3 [FA]3 | [Fd]2 [Fd] [Fd]2 c | B2 G B3 | [^DB]2 [DB] [DB]2 [FA] | G2 E G3 | %28
w: |||||||
 [EG]2 [EG] [EG][DF][CE] |[M:7/8] [B,D]2 [CE] [B,D] [B,G]3 |[M:3/4] z2 z [DA]3 | G6 |] %32
w: ||||
V:2
 z2 C B,2 B, | z2 C B,2 B, | z3 G,3 | D,6 | z2 D C2 C | z2 D C2 [D,A,] | [G,B,]3 [D,D]3 | [G,D]6 | %8
 z2[K:treble] B B2 G | z2 A A2 F | [G,DG]3[K:bass] .[G,B,]3 | [D,D]6 | [G,,G,]3 [C,G,]3 | %13
 [C,G,]3 z2 B, | [D,G,D]3 [D,F,C]3 | [G,,G,]6 | [G,B,D]3 [G,DG]3 | [G,B,D]3 [G,DG]3 | %18
 [D,D]2 [D,D] [D,D]2 [D,D] | [G,DG]3 [G,B,]3 | [G,B,G]3 [G,DG]3 | [G,B,G]3 [G,DG]3 | %22
 [G,B,D]2 [G,B,D] [G,B,D]2 [G,DG] | [D,D]3 [D,D]3 | [D,A,]2 [D,A,] [D,A,]2 [D,A,D] | %25
 [G,D]2 [G,B,D] [G,D]3 | [B,,F,]2 [B,,F,] [B,,F,]2 [B,,B,] | [E,B,E]2 [E,G,] [E,B,E]3 | %28
 [C,C]2 [C,C] [C,C]2 [C,G,] |[M:7/8] [G,,G,]2 [G,,G,] [G,,G,] [G,,G,]3 |[M:3/4] [D,B,]3 [D,C]2 D, | %31
 [G,B,D]6 |] %32
V:3
 [G,,D,G,]6 | [G,,D,G,]6 | [G,,D,G,]3 z2 G | x6 | [C,A,]6 | [C,A,]6 | x6 | x6 | %8
 [G,,G,]6[K:treble] | [D,D]6 | x3[K:bass] x3 | x6 | x6 | z3 [G,,G,]3 | x6 | x6 | x6 | x6 | x6 | %19
 x6 | x6 | x6 | x6 | x6 | x6 | x6 | x6 | x6 | x6 |[M:7/8] x7 |[M:3/4] x6 | x6 |] %32
V:4
 x6 | x6 | x6 | x6 | x6 | x6 | x6 | x6 | x6 | x6 | z3 .G3 | x6 | x6 | x6 | x6 | x6 | x6 | x6 | x6 | %19
 x6 | x6 | x6 | x6 | x6 | x6 | x6 | x6 | x6 | x6 |[M:7/8] x7 |[M:3/4] [DG]4 z C | x6 |] %32

